symbols/web/screen_rotation/materialsymbolssharp/screen_rotation_wght100grad200_48px.svg

<svg xmlns="http://www.w3.org/2000/svg" height="48" width="48"><path d="m28.15 38.8-19-19L19.9 9.1l18.95 18.95Zm0-2.55 8.15-8.2-16.4-16.4-8.2 8.15Zm-4.2 10q-4.55 0-8.625-1.75T8.25 39.75q-3-3-4.75-7.075T1.75 24.05H3.5q0 4.1 1.575 7.8t4.3 6.45q2.725 2.75 6.35 4.4 3.625 1.65 7.825 1.65L16.2 37.1l1.25-1.25 10.05 10q-1 .25-1.875.325-.875.075-1.675.075Zm20.55-22.2q0-4.15-1.575-7.85-1.575-3.7-4.25-6.45t-6.325-4.4Q28.7 3.7 24.55 3.6l7.25 7.3-1.25 1.25-10-10q.9-.25 1.85-.325.95-.075 1.55-.075 4.6 0 8.675 1.775Q36.7 5.3 39.7 8.3q3 3 4.775 7.075 1.775 4.075 1.775 8.675Zm-20.45-.15Z"/></svg>

<svg xmlns="http://www.w3.org/2000/svg" height="48" width="48"><path d="M28.15 38.8 9.15 19.8 19.9 9.1 38.85 28.05ZM28.15 36.25 36.3 28.05 19.9 11.65 11.7 19.8ZM23.95 46.25Q19.4 46.25 15.325 44.5Q11.25 42.75 8.25 39.75Q5.25 36.75 3.5 32.675Q1.75 28.6 1.75 24.05H3.5Q3.5 28.15 5.075 31.85Q6.65 35.55 9.375 38.3Q12.1 41.05 15.725 42.7Q19.35 44.35 23.55 44.35L16.2 37.1L17.45 35.85L27.5 45.85Q26.5 46.1 25.625 46.175Q24.75 46.25 23.95 46.25ZM44.5 24.05Q44.5 19.9 42.925 16.2Q41.35 12.5 38.675 9.75Q36 7 32.35 5.35Q28.7 3.7 24.55 3.6L31.8 10.9L30.55 12.15L20.55 2.15Q21.45 1.9 22.4 1.825Q23.35 1.75 23.95 1.75Q28.55 1.75 32.625 3.525Q36.7 5.3 39.7 8.3Q42.7 11.3 44.475 15.375Q46.25 19.45 46.25 24.05ZM24.05 23.9Z"/></svg>
